X:1     %Music
T:Fum, Fum Fum!
B:Shorter New Oxford Book of Carols, Oxford University Press
N:Arranged by Hugh Keyte and Andrew Parrott
F:http://www.folkinfo.org/songs
M:2/4     %Meter
L:1/16     %
K:C
[A3E3][^GE] [A2E2][c2A2] |[B2^G2][A2F2] [G2E2]E2 |[A4E4] [^G4E4] |[1[A4E4] z4 :|[2
w:Vein-ti-cin-co de di-ciem-bre, Fum, Fum Fum! 
[A4E4] z2 [BG][BG] |[c2G2][c2G2] [B2G2][B2G2] |[c2G2][G2E2] [G2E2][G2E2] |[c2G2][c2G2] [B2G2][B2G2] |
w:fum! Na-ci-do-ha por nues-tro a-mor, El Ni-no Dios, el Ni-no 
[c4G4] z2 [B^G][BG] | [M:3/4][L:1/8] [dB][cA] [B^G][AF] [GE]E |[M:2/4][L:1/16] [A3F3][^GE] [A2E2][c2A2] |[B2^G2][A2F2] [G2E2]E2 |[A4E4] [^G4E4] |[A4E4] z4 |]
w:Dios; Hoy de la Vir-gen Ma-ri-a En es-ta no-che tan fri-a,  Fum. fum, fum! 